X: 13322
M: 6/8
L: 1/8
K: G
V: 1 clef=treble middle=B
d |\
def gGg | {a}gfe d2d | ecB Ace | (G3 F2)G |\
gdB GBd | dcB A2c | BGd cAe | (G3 F2)D |\
V: 2 clef=bass middle=d
z |\
gbd' gbd' | ac'd' dfa | egb cea | dgb d'2z |\
gbd' gbd' | ac'd' dfa | gbd' dfd' | gbd' g2 :|
z |\
b2c' b3 & g6 | e'd'c' b2z & g6 | c'2b c'2^c' | d'^c'd' d2z |\
a2g f2d | g2f efg | a3 A3 | d3- d2z |
gbd' g2z | fad' d2z | gbd' dfd' | gbd' g2 |]

